svgs/thin/speakers.svg

<svg xmlns="http://www.w3.org/2000/svg" viewBox="0 0 640 512"><!-- Font Awesome Pro 6.0.0-alpha2 by @fontawesome - https://fontawesome.com License - https://fontawesome.com/license (Commercial License) --><path d="M592 0H304C277.5 0 256 21.5 256 48V464C256 490.5 277.5 512 304 512H592C618.5 512 640 490.5 640 464V48C640 21.5 618.5 0 592 0ZM624 464C624 481.645 609.645 496 592 496H304C286.355 496 272 481.645 272 464V48C272 30.355 286.355 16 304 16H592C609.645 16 624 30.355 624 48V464ZM448 160C474.5 160 496 138.5 496 112S474.5 64 448 64S400 85.5 400 112S421.5 160 448 160ZM448 80C465.645 80 480 94.355 480 112S465.645 144 448 144S416 129.645 416 112S430.355 80 448 80ZM448 224C386.188 224 336 274.172 336 336S386.188 448 448 448S560 397.828 560 336S509.812 224 448 224ZM448 432C395.064 432 352 388.934 352 336C352 283.064 395.064 240 448 240S544 283.064 544 336C544 388.934 500.936 432 448 432ZM448 288C421.516 288 400 309.504 400 336S421.516 384 448 384S496 362.496 496 336S474.484 288 448 288ZM448 368C430.355 368 416 353.645 416 336S430.355 304 448 304S480 318.355 480 336S465.645 368 448 368ZM176 288C149.516 288 128 309.504 128 336S149.516 384 176 384S224 362.496 224 336S202.484 288 176 288ZM176 368C158.355 368 144 353.645 144 336S158.355 304 176 304S208 318.355 208 336S193.645 368 176 368ZM176 64C149.5 64 128 85.5 128 112S149.5 160 176 160S224 138.5 224 112S202.5 64 176 64ZM176 144C158.355 144 144 129.645 144 112S158.355 80 176 80S208 94.355 208 112S193.645 144 176 144ZM216 0H48C21.49 0 0 21.49 0 48V464C0 490.51 21.49 512 48 512H216C220.418 512 224 508.418 224 504S220.418 496 216 496H48C30.326 496 16 481.672 16 464V48C16 30.326 30.326 16 48 16H216C220.418 16 224 12.418 224 8S220.418 0 216 0ZM219.426 233.133C199.758 224.703 177.479 221.316 153.613 226.369C105.172 236.623 68.01 278.031 64.322 327.408C59.412 393.111 111.348 448 176 448C191.467 448 206.049 444.6 219.424 438.867C222.232 437.664 224 434.824 224 431.768V431.207C224 425.553 218.195 421.967 213.006 424.213C199.324 430.131 184.109 433.072 167.93 431.643C119.305 427.346 80.545 385.891 80.006 337.08C79.416 283.65 122.705 240 176 240C189.172 240 201.611 242.861 212.988 247.779C218.186 250.025 224 246.445 224 240.783V240.229C224 237.174 222.234 234.336 219.426 233.133Z"/></svg>

<svg xmlns="http://www.w3.org/2000/svg" viewBox="0 0 640 512"><!--! Font Awesome Pro 6.3.0 by @fontawesome - https://fontawesome.com License - https://fontawesome.com/license (Commercial License) Copyright 2023 Fonticons, Inc. --><path d="M592 0h-288C277.5 0 256 21.5 256 48v416C256 490.5 277.5 512 304 512h288c26.5 0 48-21.5 48-48v-416C640 21.5 618.5 0 592 0zM624 464c0 17.64-14.36 32-32 32h-288c-17.64 0-32-14.36-32-32v-416c0-17.64 14.36-32 32-32h288c17.64 0 32 14.36 32 32V464zM448 160c26.5 0 48-21.5 48-48S474.5 64 448 64s-48 21.5-48 48S421.5 160 448 160zM448 80c17.64 0 32 14.36 32 32s-14.36 32-32 32s-32-14.36-32-32S430.4 80 448 80zM448 224c-61.81 0-112 50.17-112 112S386.2 448 448 448s112-50.17 112-112S509.8 224 448 224zM448 432c-52.94 0-96-43.07-96-96c0-52.94 43.06-96 96-96s96 43.06 96 96C544 388.9 500.9 432 448 432zM448 288c-26.48 0-48 21.5-48 48S421.5 384 448 384s48-21.5 48-48S474.5 288 448 288zM448 368c-17.64 0-32-14.36-32-32s14.36-32 32-32s32 14.36 32 32S465.6 368 448 368zM176 288C149.5 288 128 309.5 128 336S149.5 384 176 384S224 362.5 224 336S202.5 288 176 288zM176 368c-17.64 0-32-14.36-32-32s14.36-32 32-32s32 14.36 32 32S193.6 368 176 368zM176 64C149.5 64 128 85.5 128 112S149.5 160 176 160S224 138.5 224 112S202.5 64 176 64zM176 144c-17.64 0-32-14.36-32-32s14.36-32 32-32s32 14.36 32 32S193.6 144 176 144zM216 0H48C21.49 0 0 21.49 0 48v416C0 490.5 21.49 512 48 512h168C220.4 512 224 508.4 224 504S220.4 496 216 496H48c-17.67 0-32-14.33-32-32v-416c0-17.67 14.33-32 32-32h168C220.4 16 224 12.42 224 8S220.4 0 216 0zM219.4 233.1C199.8 224.7 177.5 221.3 153.6 226.4c-48.44 10.25-85.6 51.66-89.29 101C59.41 393.1 111.3 448 175.9 448c15.47 0 30.11-3.4 43.49-9.133C222.2 437.7 224 434.8 224 431.8v-.5605c0-5.654-5.805-9.24-10.99-6.994c-13.68 5.918-28.9 8.859-45.08 7.43c-48.63-4.297-87.38-45.75-87.92-94.56C79.42 283.7 122.7 240 176 240c13.17 0 25.61 2.861 36.99 7.779C218.2 250 224 246.4 224 240.8v-.5547C224 237.2 222.2 234.3 219.4 233.1z"/></svg>
